public/images/icons/mastercard.svg

<svg width="91" height="60" viewBox="0 0 91 60" fill="none" xmlns="http://www.w3.org/2000/svg">
<g clip-path="url(#clip0_43_1766)">
<path d="M0.5 7.5C0.5 3.35786 3.85786 0 8 0H83C87.1421 0 90.5 3.35786 90.5 7.5V52.5C90.5 56.6421 87.1421 60 83 60H8C3.85786 60 0.5 56.6421 0.5 52.5V7.5Z" fill="#0C1727"/>
<path d="M54.8832 12.2388L35.5231 12.3047L36.1168 47.7614L55.4769 47.6955L54.8832 12.2388Z" fill="#FF5F00"/>
<path d="M36.7955 30.1056C36.6742 22.8939 39.9026 16.4862 44.9605 12.3299C41.1415 9.33262 36.3541 7.53013 31.1648 7.54771C18.8712 7.58936 9.09479 17.7194 9.3046 30.1987C9.51441 42.678 19.6303 52.7407 31.9239 52.6991C37.1132 52.6815 41.8395 50.8468 45.5573 47.8239C40.3613 43.7651 36.9167 37.3173 36.7955 30.1056Z" fill="#EB001B"/>
<path d="M81.6954 29.802C81.9052 42.2813 72.1288 52.4114 59.8352 52.453C54.6459 52.4706 49.8585 50.6681 46.0395 47.6708C51.1591 43.5144 54.3258 37.1068 54.2046 29.8951C54.0833 22.6835 50.6398 16.2983 45.4427 12.1768C49.1605 9.15398 53.8868 7.31927 59.0761 7.30169C71.3697 7.26004 81.4867 17.3854 81.6954 29.802Z" fill="#F79E1B"/>
</g>
<defs>
<clipPath id="clip0_43_1766">
<rect width="90" height="60" fill="white" transform="translate(0.5)"/>
</clipPath>
</defs>
</svg>

<svg xmlns="http://www.w3.org/2000/svg" width="91" height="60" fill="none"><g clip-path="url(#a)"><path fill="#0C1727" d="M.5 7.5A7.5 7.5 0 0 1 8 0h75a7.5 7.5 0 0 1 7.5 7.5v45A7.5 7.5 0 0 1 83 60H8a7.5 7.5 0 0 1-7.5-7.5v-45Z"/><path fill="#FF5F00" d="m54.883 12.239-19.36.066.594 35.456 19.36-.066-.594-35.456Z"/><path fill="#EB001B" d="M36.796 30.106c-.122-7.212 3.107-13.62 8.165-17.776-3.82-2.997-8.607-4.8-13.796-4.782-12.294.041-22.07 10.171-21.86 22.65.21 12.48 10.325 22.543 22.619 22.501a21.63 21.63 0 0 0 13.633-4.875c-5.196-4.059-8.64-10.507-8.762-17.718Z"/><path fill="#F79E1B" d="M81.695 29.802c.21 12.48-9.566 22.61-21.86 22.651-5.19.018-9.977-1.785-13.796-4.782 5.12-4.157 8.287-10.564 8.166-17.776-.122-7.212-3.565-13.597-8.762-17.718a21.63 21.63 0 0 1 13.633-4.875c12.294-.042 22.41 10.083 22.62 22.5Z"/></g><defs><clipPath id="a"><path fill="#fff" d="M.5 0h90v60H.5z"/></clipPath></defs></svg>
